src/static/logos/kong.svg

<svg width="256" height="256" xmlns="http://www.w3.org/2000/svg" preserveAspectRatio="xMidYMid"><path d="M128 0c70.692 0 128 57.307 128 128 0 70.692-57.308 128-128 128C57.308 256 0 198.692 0 128 0 57.307 57.308 0 128 0" fill="#FFF"/><path d="M206.24 151.84l-.584-.024-.032-.48c-.12-1.52-2.36-5.624-3.216-7.072l-.416-.72 2.48-.2c-2.04-2.624-2.512-5.52-1.296-8.064 1.096-2.28 3.464-3.936 5.64-3.936.288.024 5.68.576 5.424 10.616-.256 9.6-7.184 9.88-7.976 9.88h-.024zM176 149.28c-.104.144-.184.304-.28.448-1.104 2.296-2.4 5.384-3.536 8.184 6.208-1.6 18.456-2.88 8.68 25.88-2.76 8.112-10.624 15-21.944 19.472 1.384.24 2.936.6 4.608 1.056-9.504 2.424-22.104 4.528-37.48 4.624l1.12-.224c-23.44-.016-49.08-7.728-53.536-24.936-3.472-13.44 11.744-25.056 11.888-25.168l.592-.448s-18.72-1.936-19.6-18.416c-.864-16.48 8.456-16.128 13.408-25.8 4.96-9.664 18.64-3.864 34.72-4.32 16.08-.448 17.424 1.84 32.24-1.104 14.832-2.944 32.96 7.632 41.984 20.064 8.776 12.08-9.456 15.52-12.88 20.64l.016.048zm-122.4-5.016c-.864 1.44-3.104 5.56-3.224 7.08l-.04.48-.584.016c-.8 0-7.728-.28-7.984-9.88-.264-10.04 5.136-10.592 5.36-10.608h.016c2.224 0 4.592 1.64 5.68 3.92 1.216 2.56.744 5.44-1.296 8.064l2.48.192-.424.72.016.016z" fill="#ABB3C9"/><path d="M209.024 129.744h-.192c-.52 0-1.04.08-1.568.208v-1.064h.04c1.144-8.624 1.616-16.448 1.44-23.552 0-50.92-44.344-68.88-44.344-68.88v4.4c-7.76-6.24-15.248-11.016-15.248-11.016v7.216c-1.48-.88-2.864-1.68-4.16-2.384-3.872-2.6-9.496-6.616-12.4-9.808l-3.952 10.704-2.976-9.64c-1.12 3.392-11.024 9.6-11.024 9.616.024-4.456-1.328-11.568-1.328-11.568l-19.856 16-1.888-5.856S81.488 40.6 75.536 47.6v-3.4s-29.68 19.64-29.68 59.248v.24c-.32 5.44-.24 11.264.296 17.536.32 7.328.816 7.68.816 7.68v.848c-.296.024-7.224.72-6.912 12.272.184 7.04 3.824 10.048 7.064 11.04.16 5.256 3.44 58.456 71.2 62.64h19.168c67.52-4.16 71-57.008 71.184-62.56 3.28-.944 7.072-3.936 7.264-11.12.32-11.544-6.616-12.24-6.912-12.272v-.008zm-159.232 21.6h-.08c-.72 0-7.16-.264-7.408-9.384-.256-9.68 4.864-10.08 4.864-10.08 3.8 0 8.856 5.84 3.24 11.92l2.672.216s-3.12 5.344-3.28 7.328h-.008zm130.224-13.56c-.56 11.64-11.44 20.16-11.536 20.24l-.592.48.6.432c.16.12 11.88 6.224 8.4 19.68-4.456 17.28-26.112 26.096-49.6 26.096-23.464 0-45.12-8.832-49.576-26.096-3.48-13.464 8.24-19.568 8.4-19.68l.592-.448-.592-.464c-.104-.08-10.96-8.608-11.536-20.24-.32-6.72 2.816-13.184 9.312-19.224 4.4-4.08 10.288-6.144 17.544-6.144 11.024 0 21.664 4.776 25.872 7.312 4.224-2.536 14.864-7.312 25.888-7.312 7.248 0 13.144 2.064 17.544 6.16 6.48 6.032 9.624 12.504 9.296 19.2l-.016.008zm33.68 4.176c-.24 9.12-6.688 9.384-7.416 9.384h-.08c-.144-1.984-3.28-7.328-3.28-7.328l2.672-.208c-5.624-6.096-.576-11.936 3.232-11.936 0 0 5.12.416 4.856 10.08l.016.008z" fill="#10313F"/><path d="M165.68 172.68c0 11.28-16.88 20.424-37.68 20.424s-37.68-9.144-37.68-20.424 16.88-20.424 37.68-20.424 37.68 9.144 37.68 20.424" fill="#B4BFD1"/><path d="M71.28 112c4.896-4.36 10.368-7.84 16.984-9.36 9.544-2.24 19.664-.608 28.752 2.56 3.12 1.088 6.16 2.344 9.064 3.864 1.808.944 1.888 1.312 3.72.336 5.808-3.12 12.24-5.384 18.76-6.704 7.736-1.56 16.064-1.648 23.536 1.064 9.072 3.296 14.72 9.624 20.384 16.784-3.84-8.72-9.44-16.16-18.52-20.584-7.176-3.488-15.544-4.368-23.496-3.496-7.056.776-13.96 2.744-20.376 5.632-1.72.776-1.944.768-3.664 0a71.597 71.597 0 00-4.88-1.984c-3.624-1.312-7.384-2.368-11.2-3.04-8.544-1.52-17.616-1.328-25.704 1.936-10.128 4.08-16.528 12.16-20.616 21.536 2.336-2.96 4.608-5.84 7.248-8.56l.008.016" fill="#133B4C"/><path d="M134.496 162c-2.912 0-6.096-1.168-7.28-1.664-1.2.496-4.376 1.68-7.296 1.68-3.68 0-9.664-1.968-9.664-1.968s-3.04-4.64 1.6-9.096c4.224-4.064 15 1.008 15 1.008h.712s10.336-4.616 15-1.016c5.12 3.952 1.584 9.088 1.584 9.088s-5.968 1.96-9.648 1.96l-.008.008zm19.552 20.064s-8.8 6.72-26.304 6.72c-17.496 0-26.296-6.72-26.296-6.72s10.08 3.488 26.456 3.488c16.368 0 26.16-3.488 26.16-3.488h-.016z" fill="#D6DCE6"/><path d="M177.336 136.496c-12.264-25.56-50.096-10.48-50.096-10.48s-37.84-15.08-50.08 10.48c0 0-.992-16.584 18.616-21.36 12.736-3.096 31.44 7.024 31.464 7.016.032 0 18.72-10.12 31.464-7.016 19.616 4.768 18.64 21.36 18.64 21.36h-.008zm-68.536 17.4l.08 2.128c-5.08-.128-9.704 2.352-13.8 4.88 3.92-3.28 8.336-6.384 13.72-7.008zm50.16 7.016c-4.16-2.864-8.8-5.2-14.128-5.12l.096-2.12c5.584.64 10.12 3.64 14.04 7.232l-.008.008z" fill="#99A0BA"/><path d="M168.936 177.48c-.368-1.176-.528-2.4-.88-3.584l-.536.48c-2.672 2.352-5.808 4.264-9.056 5.816-5.84 2.8-12.224 4.512-18.688 5.392-8.56 1.168-17.456 1.08-25.976-.4-6.144-1.04-12.16-2.88-17.656-5.736-2.936-1.52-5.776-3.336-8.184-5.552-.32 1.176-.48 2.4-.8 3.576-.984-1.52-1.168-3.456-.4-5.08.72-1.52 2.584-2.92 4.44-2.6a9.513 9.513 0 00-1.976 1.776c-.272.336-.192.336.08.576l.512.48c.48.4.984.8 1.488 1.2 1.6 1.224 3.336 2.304 5.12 3.28 5.904 3.2 12.512 5.2 19.216 6.224 9.232 1.424 18.912 1.264 28.08-.56 6.112-1.24 12.112-3.312 17.416-6.48 1.52-.92 2.976-1.92 4.336-3.04.4-.336.8-.688 1.176-1.04.08-.064.16-.12.208-.2.104-.16.12-.12-.04-.32-.576-.72-1.336-1.36-2.12-1.864 2.224-.44 4.56 1.584 4.912 3.576.264 1.424.12 2.816-.664 4.08h-.008zm-28.64-20.296c0 1.52-1.92 2.752-4.296 2.752-2.376 0-4.296-1.24-4.296-2.752 0-1.52 1.92-2.752 4.296-2.752 2.368 0 4.296 1.224 4.296 2.752zm4.504-1.344c-.352-2.296-2.08-4.344-4.4-5.072-2.848-.88-6.032-.56-8.928-.08 2.688-1.144 6.208-1.728 9.072-.928 1.344.376 2.56 1.008 3.472 2.024.264.288.496.64.704.96.112.16 1.088 2.136.896 2.184.208 1.88-.176 3.76-1.544 5.216.56-1.416.96-2.76.72-4.304h.008zm-25.536 4.096c-2.368 0-4.288-1.24-4.288-2.752 0-1.52 1.92-2.752 4.288-2.752 2.368 0 4.288 1.224 4.288 2.752 0 1.52-1.92 2.752-4.288 2.752zm-7.92-7.28c-.88 1.136-1.488 2.384-1.576 3.816-.08 1.304.32 2.456.8 3.664-2.272-2.416-2.016-6 .112-8.4.744-.72 1.472-1.264 2.456-1.68 1.16-.464 2.48-.64 3.728-.64 2.112 0 4.384.416 6.32 1.264a30.362 30.362 0 00-4.584-.448c-2.56-.04-5.584.32-7.232 2.416l-.024.008z" fill="#10313F"/><path d="M97.408 208.016s-1.016-4.336 7.088-2.976c8.104 1.36 17.04 4.736 17.04 4.736s.6-2.832 5.576-2.504c4.976.32 7.68 2.896 7.68 2.896s11.64-4.896 16.448-4.816c4.816.08 5.152-1.12 5.744.64.592 1.76.504 3.216 0 5.696-.504 2.48-2.88 5.296-2.88 6.984 0 1.68 3.12 11.2-1.256 11.784-4.384.6-18.656-6.72-18.656-6.72s-1.008 2.88-5.648 2.88c-4.656 0-7.104-1.936-7.104-1.936s-15.52 6.176-18.144 5.816c-2.616-.352-2.784-2.92-2.448-5.248.336-2.32 1.264-6.496.76-6.904-.504-.4-4.216-10.336-4.216-10.336l.016.008" fill="#61B9E8"/><path d="M103.872 219.096s.4 4.52 4.192 4.52c3.784 0 11.896-5.92 11.896-5.92s5.408 3.792 8.344 3.792c2.928 0 5.344-3.792 5.344-3.792s17.248 2.512 21.856-3.12c4.608-5.616-1.072 4.296-1.072 4.296s3.28 10.88-.448 11.776c-3.736.88-19.24-6.368-19.24-6.368s-4.104 2.496-6.96 2.448c-2.88-.056-5.92-1.872-5.92-1.872s-16.96 6.304-19.704 5.152c-2.736-1.152-.64-9.44 1.712-10.92v.008" fill="#4BAAD3"/><path d="M159.856 206.32c-.24-1.04-.928-1.84-1.96-2.32-4.784-2.24-18.176 2.984-22.992 5.008-1.52-1.904-3.92-3.12-6.64-3.12-2.704 0-5.104 1.224-6.64 3.12-4.8-2-18.24-7.248-23.016-5.008-1.04.48-1.712 1.28-1.96 2.32-1.256 5.24 2.416 11.264 3.76 13.232-.752 2.056-2.448 7.648-.384 11.04.624 1 1.864 1.44 3.52 1.44 4.44 0 11.872-3.04 18.424-6.24a8.544 8.544 0 006.32 2.76 8.5 8.5 0 006.56-3.056c6.512 3.32 13.888 6.496 18.256 6.496 1.6 0 2.784-.424 3.392-1.416 2.08-3.384.376-8.976-.368-11.04 1.336-1.96 5.008-7.984 3.744-13.232l-.016.016zm-57.216 22.8c-1.44-2.32.184-7.584.856-9.248l.304-.72-.48-.64c-1.376-1.816-4.72-7.424-3.712-11.552.032-.12.08-.24.352-.368 2.768-1.296 13.08 2 20.296 5.008a7.747 7.747 0 00-.336 2.24v6.736c0 .96.184 1.872.512 2.72-8.32 4-16.464 6.664-17.776 5.84l-.016-.016zm30.96-8.544c0 2.8-2.384 5.08-5.328 5.08-2.944 0-5.336-2.28-5.336-5.08v-6.72c0-2.816 2.4-5.096 5.336-5.096 2.944 0 5.328 2.28 5.328 5.088v6.736-.008zm19.408-.704c.68 1.656 2.288 6.912.92 9.2-1.36.84-9.44-1.984-17.656-6.128.24-.752.376-1.544.376-2.368v-6.72c0-.8-.128-1.56-.352-2.272 7.2-3.008 17.52-6.288 20.264-4.992.264.128.32.24.336.368 1.2 4.96-3.656 11.48-3.712 11.552l-.48.64.304.72z" fill="#0D252C"/><path d="M158.208 145.416c-.8 1.648-2.176 2.816-3.888 3.256-.16.04-.304.08-.456.096-3.344.6-6.8-1.76-7.856-5.344-.52-1.816-.4-3.68.368-5.28.8-1.648 2.184-2.8 3.896-3.248 3.48-.912 7.2 1.488 8.304 5.248.536 1.808.424 3.68-.352 5.28l-.016-.008zm-55.872 3.44c-.16-.016-.32-.04-.48-.08-3.304-.704-5.464-4.16-4.912-7.856.28-1.864 1.2-3.52 2.584-4.696 1.44-1.2 3.2-1.76 4.96-1.52 3.568.48 5.96 4.08 5.376 7.944-.584 3.904-3.968 6.696-7.52 6.216l-.008-.008z" fill="#0B0B0B"/><path d="M153.44 140.544c-1.296.24-2.528-.56-2.768-1.776-.24-1.2.608-2.384 1.888-2.608 1.28-.24 2.52.56 2.76 1.76.24 1.216-.608 2.384-1.888 2.624h.008zm-48.4.376c-1.28-.272-2.08-1.472-1.784-2.672.28-1.2 1.544-1.944 2.824-1.664 1.28.272 2.08 1.472 1.784 2.672-.28 1.2-1.544 1.952-2.824 1.68v-.016z" fill="#FFF"/><path d="M156.048 145.312c-.048.16-.584 1.464-2.416 1.52-.32 0-.624 0-.912-.064h-.032l-.32-.056c-.024-.016-.056-.016-.08-.016-.112-.032-.216-.064-.32-.08-.024 0-.04 0-.048-.024-2.928-.88-3.792-4.08-3.792-4.08.104.128.24.24.344.368 2.856 3.2 7.584 2.4 7.584 2.4s0 .024-.016.032h.008zm-53.4 1.472a4.663 4.663 0 01-.8-.4l-.296-.176a.288.288 0 01-.096-.064c-.136-.096-.264-.208-.4-.32l-.048-.056-.032-.032a.991.991 0 01-.224-.224c-1.816-1.92-1.32-4.768-1.32-4.768.032.16.08.32.136.48 1.296 4 5.968 5.08 5.968 5.08l-.016.024c-.08.064-1.12 1.144-2.856.464l-.016-.008z" fill="#525365"/></svg>

<?xml version="1.0" encoding="UTF-8" standalone="no"?>
<svg width="256px" height="256px" viewBox="0 0 256 256" version="1.1" xmlns="http://www.w3.org/2000/svg" xmlns:xlink="http://www.w3.org/1999/xlink" preserveAspectRatio="xMidYMid">
	<g>
		<path d="M128,0 C198.692,0 256,57.307 256,128 C256,198.692 198.692,256 128,256 C57.308,256 0,198.692 0,128 C0,57.307 57.308,0 128,0" fill="#FFFFFF"></path>
		<path d="M206.24,151.84 L205.656,151.816 L205.624,151.336 C205.504,149.816 203.264,145.712 202.408,144.264 L201.992,143.544 L204.472,143.344 C202.432,140.72 201.96,137.824 203.176,135.28 C204.272,133 206.64,131.344 208.816,131.344 C209.104,131.368 214.496,131.92 214.24,141.96 C213.984,151.56 207.056,151.84 206.264,151.84 L206.24,151.84 L206.24,151.84 Z M176,149.28 C175.896,149.424 175.816,149.584 175.72,149.728 C174.616,152.024 173.32,155.112 172.184,157.912 C178.392,156.312 190.64,155.032 180.864,183.792 C178.104,191.904 170.24,198.792 158.92,203.264 C160.304,203.504 161.856,203.864 163.528,204.32 C154.024,206.744 141.424,208.848 126.048,208.944 L127.168,208.72 C103.728,208.704 78.088,200.992 73.632,183.784 C70.16,170.344 85.376,158.728 85.52,158.616 L86.112,158.168 C86.112,158.168 67.392,156.232 66.512,139.752 C65.648,123.272 74.968,123.624 79.92,113.952 C84.88,104.288 98.56,110.088 114.64,109.632 C130.72,109.184 132.064,111.472 146.88,108.528 C161.712,105.584 179.84,116.16 188.864,128.592 C197.64,140.672 179.408,144.112 175.984,149.232 L176,149.28 L176,149.28 Z M53.6,144.264 C52.736,145.704 50.496,149.824 50.376,151.344 L50.336,151.824 L49.752,151.84 C48.952,151.84 42.024,151.56 41.768,141.96 C41.504,131.92 46.904,131.368 47.128,131.352 L47.144,131.352 C49.368,131.352 51.736,132.992 52.824,135.272 C54.04,137.832 53.568,140.712 51.528,143.336 L54.008,143.528 L53.584,144.248 L53.6,144.264 L53.6,144.264 Z" fill="#ABB3C9"></path>
		<path d="M209.024,129.744 L208.832,129.744 C208.312,129.744 207.792,129.824 207.264,129.952 L207.264,128.888 L207.304,128.888 C208.448,120.264 208.92,112.44 208.744,105.336 C208.744,54.416 164.4,36.456 164.4,36.456 L164.4,40.856 C156.64,34.616 149.152,29.84 149.152,29.84 L149.152,37.056 C147.672,36.176 146.288,35.376 144.992,34.672 C141.12,32.072 135.496,28.056 132.592,24.864 L128.64,35.568 L125.664,25.928 C124.544,29.32 114.64,35.528 114.64,35.544 C114.664,31.088 113.312,23.976 113.312,23.976 L93.456,39.976 L91.568,34.12 C91.568,34.12 81.488,40.6 75.536,47.6 L75.536,44.2 C75.536,44.2 45.856,63.84 45.856,103.448 L45.856,103.688 C45.536,109.128 45.616,114.952 46.152,121.224 C46.472,128.552 46.968,128.904 46.968,128.904 L46.968,129.752 C46.672,129.776 39.744,130.472 40.056,142.024 C40.24,149.064 43.88,152.072 47.12,153.064 C47.28,158.32 50.56,211.52 118.32,215.704 L137.488,215.704 C205.008,211.544 208.488,158.696 208.672,153.144 C211.952,152.2 215.744,149.208 215.936,142.024 C216.256,130.48 209.32,129.784 209.024,129.752 L209.024,129.744 L209.024,129.744 Z M49.792,151.344 L49.712,151.344 C48.992,151.344 42.552,151.08 42.304,141.96 C42.048,132.28 47.168,131.88 47.168,131.88 C50.968,131.88 56.024,137.72 50.408,143.8 L53.08,144.016 C53.08,144.016 49.96,149.36 49.8,151.344 L49.792,151.344 L49.792,151.344 Z M180.016,137.784 C179.456,149.424 168.576,157.944 168.48,158.024 L167.888,158.504 L168.488,158.936 C168.648,159.056 180.368,165.16 176.888,178.616 C172.432,195.896 150.776,204.712 127.288,204.712 C103.824,204.712 82.168,195.88 77.712,178.616 C74.232,165.152 85.952,159.048 86.112,158.936 L86.704,158.488 L86.112,158.024 C86.008,157.944 75.152,149.416 74.576,137.784 C74.256,131.064 77.392,124.6 83.888,118.56 C88.288,114.48 94.176,112.416 101.432,112.416 C112.456,112.416 123.096,117.192 127.304,119.728 C131.528,117.192 142.168,112.416 153.192,112.416 C160.44,112.416 166.336,114.48 170.736,118.576 C177.216,124.608 180.36,131.08 180.032,137.776 L180.016,137.784 L180.016,137.784 Z M213.696,141.96 C213.456,151.08 207.008,151.344 206.28,151.344 L206.2,151.344 C206.056,149.36 202.92,144.016 202.92,144.016 L205.592,143.808 C199.968,137.712 205.016,131.872 208.824,131.872 C208.824,131.872 213.944,132.288 213.68,141.952 L213.696,141.96 L213.696,141.96 Z" fill="#10313F"></path>
		<path d="M165.68,172.68 C165.68,183.96 148.8,193.104 128,193.104 C107.2,193.104 90.32,183.96 90.32,172.68 C90.32,161.4 107.2,152.256 128,152.256 C148.8,152.256 165.68,161.4 165.68,172.68" fill="#B4BFD1"></path>
		<path d="M71.28,112 C76.176,107.64 81.648,104.16 88.264,102.64 C97.808,100.4 107.928,102.032 117.016,105.2 C120.136,106.288 123.176,107.544 126.08,109.064 C127.888,110.008 127.968,110.376 129.8,109.4 C135.608,106.28 142.04,104.016 148.56,102.696 C156.296,101.136 164.624,101.048 172.096,103.76 C181.168,107.056 186.816,113.384 192.48,120.544 C188.64,111.824 183.04,104.384 173.96,99.96 C166.784,96.472 158.416,95.592 150.464,96.464 C143.408,97.24 136.504,99.208 130.088,102.096 C128.368,102.872 128.144,102.864 126.424,102.096 C124.824,101.376 123.192,100.712 121.544,100.112 C117.92,98.8 114.16,97.744 110.344,97.072 C101.8,95.552 92.728,95.744 84.64,99.008 C74.512,103.088 68.112,111.168 64.024,120.544 C66.36,117.584 68.632,114.704 71.272,111.984 L71.28,112" fill="#133B4C"></path>
		<path d="M134.496,162 C131.584,162 128.4,160.832 127.216,160.336 C126.016,160.832 122.84,162.016 119.92,162.016 C116.24,162.016 110.256,160.048 110.256,160.048 C110.256,160.048 107.216,155.408 111.856,150.952 C116.08,146.888 126.856,151.96 126.856,151.96 L127.568,151.96 C127.568,151.96 137.904,147.344 142.568,150.944 C147.688,154.896 144.152,160.032 144.152,160.032 C144.152,160.032 138.184,161.992 134.504,161.992 L134.496,162 L134.496,162 Z M154.048,182.064 C154.048,182.064 145.248,188.784 127.744,188.784 C110.248,188.784 101.448,182.064 101.448,182.064 C101.448,182.064 111.528,185.552 127.904,185.552 C144.272,185.552 154.064,182.064 154.064,182.064 L154.048,182.064 L154.048,182.064 Z" fill="#D6DCE6"></path>
		<path d="M177.336,136.496 C165.072,110.936 127.24,126.016 127.24,126.016 C127.24,126.016 89.4,110.936 77.16,136.496 C77.16,136.496 76.168,119.912 95.776,115.136 C108.512,112.04 127.216,122.16 127.24,122.152 C127.272,122.152 145.96,112.032 158.704,115.136 C178.32,119.904 177.344,136.496 177.344,136.496 L177.336,136.496 L177.336,136.496 Z M108.8,153.896 L108.88,156.024 C103.8,155.896 99.176,158.376 95.08,160.904 C99,157.624 103.416,154.52 108.8,153.896 L108.8,153.896 Z M158.96,160.912 C154.8,158.048 150.16,155.712 144.832,155.792 L144.928,153.672 C150.512,154.312 155.048,157.312 158.968,160.904 L158.96,160.912 L158.96,160.912 Z" fill="#99A0BA"></path>
		<path d="M168.936,177.48 C168.568,176.304 168.408,175.08 168.056,173.896 L167.52,174.376 C164.848,176.728 161.712,178.64 158.464,180.192 C152.624,182.992 146.24,184.704 139.776,185.584 C131.216,186.752 122.32,186.664 113.8,185.184 C107.656,184.144 101.64,182.304 96.144,179.448 C93.208,177.928 90.368,176.112 87.96,173.896 C87.64,175.072 87.48,176.296 87.16,177.472 C86.176,175.952 85.992,174.016 86.76,172.392 C87.48,170.872 89.344,169.472 91.2,169.792 C90.464,170.296 89.784,170.888 89.224,171.568 C88.952,171.904 89.032,171.904 89.304,172.144 L89.816,172.624 C90.296,173.024 90.8,173.424 91.304,173.824 C92.904,175.048 94.64,176.128 96.424,177.104 C102.328,180.304 108.936,182.304 115.64,183.328 C124.872,184.752 134.552,184.592 143.72,182.768 C149.832,181.528 155.832,179.456 161.136,176.288 C162.656,175.368 164.112,174.368 165.472,173.248 C165.872,172.912 166.272,172.56 166.648,172.208 C166.728,172.144 166.808,172.088 166.856,172.008 C166.96,171.848 166.976,171.888 166.816,171.688 C166.24,170.968 165.48,170.328 164.696,169.824 C166.92,169.384 169.256,171.408 169.608,173.4 C169.872,174.824 169.728,176.216 168.944,177.48 L168.936,177.48 L168.936,177.48 Z M140.296,157.184 C140.296,158.704 138.376,159.936 136,159.936 C133.624,159.936 131.704,158.696 131.704,157.184 C131.704,155.664 133.624,154.432 136,154.432 C138.368,154.432 140.296,155.656 140.296,157.184 L140.296,157.184 Z M144.8,155.84 C144.448,153.544 142.72,151.496 140.4,150.768 C137.552,149.888 134.368,150.208 131.472,150.688 C134.16,149.544 137.68,148.96 140.544,149.76 C141.888,150.136 143.104,150.768 144.016,151.784 C144.28,152.072 144.512,152.424 144.72,152.744 C144.832,152.904 145.808,154.88 145.616,154.928 C145.824,156.808 145.44,158.688 144.072,160.144 C144.632,158.728 145.032,157.384 144.792,155.84 L144.8,155.84 L144.8,155.84 Z M119.264,159.936 C116.896,159.936 114.976,158.696 114.976,157.184 C114.976,155.664 116.896,154.432 119.264,154.432 C121.632,154.432 123.552,155.656 123.552,157.184 C123.552,158.704 121.632,159.936 119.264,159.936 L119.264,159.936 Z M111.344,152.656 C110.464,153.792 109.856,155.04 109.768,156.472 C109.688,157.776 110.088,158.928 110.568,160.136 C108.296,157.72 108.552,154.136 110.68,151.736 C111.424,151.016 112.152,150.472 113.136,150.056 C114.296,149.592 115.616,149.416 116.864,149.416 C118.976,149.416 121.248,149.832 123.184,150.68 C121.664,150.416 120.144,150.264 118.6,150.232 C116.04,150.192 113.016,150.552 111.368,152.648 L111.344,152.656 L111.344,152.656 Z" fill="#10313F"></path>
		<path d="M97.408,208.016 C97.408,208.016 96.392,203.68 104.496,205.04 C112.6,206.4 121.536,209.776 121.536,209.776 C121.536,209.776 122.136,206.944 127.112,207.272 C132.088,207.592 134.792,210.168 134.792,210.168 C134.792,210.168 146.432,205.272 151.24,205.352 C156.056,205.432 156.392,204.232 156.984,205.992 C157.576,207.752 157.488,209.208 156.984,211.688 C156.48,214.168 154.104,216.984 154.104,218.672 C154.104,220.352 157.224,229.872 152.848,230.456 C148.464,231.056 134.192,223.736 134.192,223.736 C134.192,223.736 133.184,226.616 128.544,226.616 C123.888,226.616 121.44,224.68 121.44,224.68 C121.44,224.68 105.92,230.856 103.296,230.496 C100.68,230.144 100.512,227.576 100.848,225.248 C101.184,222.928 102.112,218.752 101.608,218.344 C101.104,217.944 97.392,208.008 97.392,208.008 L97.408,208.016" fill="#61B9E8"></path>
		<path d="M103.872,219.096 C103.872,219.096 104.272,223.616 108.064,223.616 C111.848,223.616 119.96,217.696 119.96,217.696 C119.96,217.696 125.368,221.488 128.304,221.488 C131.232,221.488 133.648,217.696 133.648,217.696 C133.648,217.696 150.896,220.208 155.504,214.576 C160.112,208.96 154.432,218.872 154.432,218.872 C154.432,218.872 157.712,229.752 153.984,230.648 C150.248,231.528 134.744,224.28 134.744,224.28 C134.744,224.28 130.64,226.776 127.784,226.728 C124.904,226.672 121.864,224.856 121.864,224.856 C121.864,224.856 104.904,231.16 102.16,230.008 C99.424,228.856 101.52,220.568 103.872,219.088 L103.872,219.096" fill="#4BAAD3"></path>
		<path d="M159.856,206.32 C159.616,205.28 158.928,204.48 157.896,204 C153.112,201.76 139.72,206.984 134.904,209.008 C133.384,207.104 130.984,205.888 128.264,205.888 C125.56,205.888 123.16,207.112 121.624,209.008 C116.824,207.008 103.384,201.76 98.608,204 C97.568,204.48 96.896,205.28 96.648,206.32 C95.392,211.56 99.064,217.584 100.408,219.552 C99.656,221.608 97.96,227.2 100.024,230.592 C100.648,231.592 101.888,232.032 103.544,232.032 C107.984,232.032 115.416,228.992 121.968,225.792 C123.504,227.472 125.76,228.552 128.288,228.552 C130.944,228.552 133.312,227.352 134.848,225.496 C141.36,228.816 148.736,231.992 153.104,231.992 C154.704,231.992 155.888,231.568 156.496,230.576 C158.576,227.192 156.872,221.6 156.128,219.536 C157.464,217.576 161.136,211.552 159.872,206.304 L159.856,206.32 L159.856,206.32 Z M102.64,229.12 C101.2,226.8 102.824,221.536 103.496,219.872 L103.8,219.152 L103.32,218.512 C101.944,216.696 98.6,211.088 99.608,206.96 C99.64,206.84 99.688,206.72 99.96,206.592 C102.728,205.296 113.04,208.592 120.256,211.6 C120.04,212.32 119.92,213.064 119.92,213.84 L119.92,220.576 C119.92,221.536 120.104,222.448 120.432,223.296 C112.112,227.296 103.968,229.96 102.656,229.136 L102.64,229.12 L102.64,229.12 Z M133.6,220.576 C133.6,223.376 131.216,225.656 128.272,225.656 C125.328,225.656 122.936,223.376 122.936,220.576 L122.936,213.856 C122.936,211.04 125.336,208.76 128.272,208.76 C131.216,208.76 133.6,211.04 133.6,213.848 L133.6,220.584 L133.6,220.576 L133.6,220.576 Z M153.008,219.872 C153.688,221.528 155.296,226.784 153.928,229.072 C152.568,229.912 144.488,227.088 136.272,222.944 C136.512,222.192 136.648,221.4 136.648,220.576 L136.648,213.856 C136.648,213.056 136.52,212.296 136.296,211.584 C143.496,208.576 153.816,205.296 156.56,206.592 C156.824,206.72 156.88,206.832 156.896,206.96 C158.096,211.92 153.24,218.44 153.184,218.512 L152.704,219.152 L153.008,219.872 L153.008,219.872 Z" fill="#0D252C"></path>
		<path d="M158.208,145.416 C157.408,147.064 156.032,148.232 154.32,148.672 C154.16,148.712 154.016,148.752 153.864,148.768 C150.52,149.368 147.064,147.008 146.008,143.424 C145.488,141.608 145.608,139.744 146.376,138.144 C147.176,136.496 148.56,135.344 150.272,134.896 C153.752,133.984 157.472,136.384 158.576,140.144 C159.112,141.952 159,143.824 158.224,145.424 L158.208,145.416 L158.208,145.416 Z M102.336,148.856 C102.176,148.84 102.016,148.816 101.856,148.776 C98.552,148.072 96.392,144.616 96.944,140.92 C97.224,139.056 98.144,137.4 99.528,136.224 C100.968,135.024 102.728,134.464 104.488,134.704 C108.056,135.184 110.448,138.784 109.864,142.648 C109.28,146.552 105.896,149.344 102.344,148.864 L102.336,148.856 L102.336,148.856 Z" fill="#0B0B0B"></path>
		<path d="M153.44,140.544 C152.144,140.784 150.912,139.984 150.672,138.768 C150.432,137.568 151.28,136.384 152.56,136.16 C153.84,135.92 155.08,136.72 155.32,137.92 C155.56,139.136 154.712,140.304 153.432,140.544 L153.44,140.544 L153.44,140.544 Z M105.04,140.92 C103.76,140.648 102.96,139.448 103.256,138.248 C103.536,137.048 104.8,136.304 106.08,136.584 C107.36,136.856 108.16,138.056 107.864,139.256 C107.584,140.456 106.32,141.208 105.04,140.936 L105.04,140.92 L105.04,140.92 Z" fill="#FFFFFF"></path>
		<path d="M156.048,145.312 C156,145.472 155.464,146.776 153.632,146.832 C153.312,146.832 153.008,146.832 152.72,146.768 L152.688,146.768 L152.368,146.712 C152.344,146.696 152.312,146.696 152.288,146.696 C152.176,146.664 152.072,146.632 151.968,146.616 C151.944,146.616 151.928,146.616 151.92,146.592 C148.992,145.712 148.128,142.512 148.128,142.512 C148.232,142.64 148.368,142.752 148.472,142.88 C151.328,146.08 156.056,145.28 156.056,145.28 C156.056,145.28 156.056,145.304 156.04,145.312 L156.048,145.312 L156.048,145.312 Z M102.648,146.784 C102.344,146.672 102.088,146.528 101.848,146.384 L101.552,146.208 C101.52,146.192 101.472,146.168 101.456,146.144 C101.32,146.048 101.192,145.936 101.056,145.824 L101.008,145.768 L100.976,145.736 C100.896,145.68 100.816,145.6 100.752,145.512 C98.936,143.592 99.432,140.744 99.432,140.744 C99.464,140.904 99.512,141.064 99.568,141.224 C100.864,145.224 105.536,146.304 105.536,146.304 L105.52,146.328 C105.44,146.392 104.4,147.472 102.664,146.792 L102.648,146.784 L102.648,146.784 Z" fill="#525365"></path>
	</g>
</svg>
